X: 1
T: String Quartet in C Major opus 74 no 1 mvt 1
C: Franz Joseph Haydn
%%abc-version 2.0
%%abcx-abcm2ps-target-version 5.9.1 (29 Sep 2008)
%%abc-creator hum2abc beta
%%abcx-conversion-date 2021/02/14 14:38:11
%%abc-copyright Copyright (c) 1994, 2000 Center for Computer Assisted Research in the Humanities
%%abc-edited-by Frances Bennion
%%abcx-initial-encoding-date 1997/04/15
%%gracespace 0 6 6
%%humdrum-veritas 3712317540
%%humdrum-veritas-data 1801923951
%%linebreak <none>
%%barnumbers 0
L: 1/8
M: 4/4
N: Derived from op74n1-01.krn
Q: "Allegro moderato"
%%staves [1 2 3 4]
V: 1
V: 2
V: 3 clef=alto
V: 4 clef=bass
K: C
[V:1][D8B8] [I:setbarnb2] |
[V:2][G,8F8] |
[V:3][B,8D8] |
[V:4]G,,8 |
[V:1][G,2c2E2] z6 |
[V:2][E2G,2] z6 |
[V:3][C,2G,2E2] z6 |
[V:4][C,,2C,2] z6 |
[V:1]c4 d4 |
[V:2]G4 A4 |
[V:3]E4 F4 |
[V:4]CC CC CC CC |
[V:1]B4 c2 ^c2 |
[V:2]F4 G4 |
[V:3]D4 E4 |
[V:4]CC CC CC CC |
[V:1]d4 _e2 =e2 |
[V:2]A2 >>B2 c2 c2 |
[V:3]F4 ^F2 G2 |
[V:4]CC CC CC CC |
[V:1]f4 e2 zg |
[V:2]c2 d2 G2 z2 |
[V:3]A2 B2 c2 z2 |
[V:4]CC CC C2 z2 |
[V:1]c'e'/d'/ c'/b/a/g/ f/e/d/c/ B/A/G/F/ |
[V:2]G,8 |
[V:3]C,8- |
[V:4]E,,8 |
[V:1]E4 D2 A2 |
[V:2]A,6 CD |
[V:3]C,2 ^C,2 D,4 |
[V:4]F,,6 ^F,,2 |
[V:1]C4 B,C DE |
[V:2]D4- DC B,C |
[V:3]F,4- F,E, F,E, |
[V:4]G,,8- |
[V:1]F4 E2 z2 |
[V:2]C2 B,2 C2 z2 |
[V:3]D,4 E,2 z2 |
[V:4]G,,4 C,,C, G,,E,, |
[V:1]c4 d4 |
[V:2]G4 A4 |
[V:3]E4 F4 |
[V:4]C,,C CC CC CC |
[V:1]B4 c2 e2 |
[V:2]F4 Ec cc |
[V:3]D4 E2 G2 |
[V:4]CC CC C2 _B,2 |
[V:1]f4 ^f2 g2 |
[V:2]cc cc cc cc |
[V:3]C6 D2 |
[V:4]A,4 _A,2 G,2 |
[V:1]a2 a>b c'3 c' |
[V:2]c4 A,4 |
[V:3]_E8 |
[V:4]^F,8 |
[V:1]c'/e/f/^f/ g/B/c/d/ e/E/F/^F/ G/B,/C/D/ |
[V:2]C8- |
[V:3]E8 |
[V:4]G,8 |
[V:1]E4 F2 A2 |
[V:2]C8- |
[V:3]z/^G,/A,/B,/ C/E,/F,/=G,/ A,2 A,2 |
[V:4]z/^G,,/A,,/B,,/ C,/E,,/F,,/=G,,/ A,,2 ^F,,2 |
[V:1]D8 |
[V:2]C4 B,4 |
[V:3]G,4 F,4 |
[V:4]G,,8 |
[V:1]Cg ^fa ge =fd |
[V:2]C2 z6 |
[V:3]E,2 z6 |
[V:4]C,,2 z6 |
[V:1]c6 Bd |
[V:2]zG ^FA GE =FD |
[V:3]zE ^DF EC =DB, |
[V:4]z8 |
[V:1]f8 |
[V:2]B,8- |
[V:3]D8- |
[V:4]zG,, ^F,,A,, G,,B,, D,E, |
[V:1]zd' ^c'e' d'b =c'a |
[V:2]B,2 z6 |
[V:3]D2 z6 |
[V:4]F,2 z6 |
[V:1]g8- |
[V:2]zd ^ce dB e=c |
[V:3]zB ^A^c BG =c=A |
[V:4]z8 |
[V:1]g8 |
[V:2]f8 |
[V:3]d8 |
[V:4]z_A,, G,,C, B,,D, G,B, |
[V:1]ze' d'f' e'c' bd' |
[V:2]e2 z2 >e2 df |
[V:3]cc Bd c2 z2 |
[V:4]C2 z6 |
[V:1]c'a ^gb a=g ^fa |
[V:2]ee df ed ce |
[V:3]zc Bd cB Ac |
[V:4]z8 |
[V:1]g^f ed ^cg ec |
[V:2]dc BA G4 |
[V:3]BA G^F E4 |
[V:4]z8 |
[V:1]dd e^c dd ec |
[V:2]^F2 G2 F2 G2 |
[V:3]D2 z6 |
[V:4]zD ^CE zD CE |
[V:1]dd e^c dd ec |
[V:2]^F2 G2 F2 G2 |
[V:3]z8 |
[V:4]zD ^CE zD CE |
[V:1]dc Bd c2 z2 |
[V:2]^FA ^GB AC B,D |
[V:3]z4 zA, ^G,B, |
[V:4]D8 |
[V:1]z8 |
[V:2]C4- Cc BA |
[V:3]A,4- A,A G^F |
[V:4]zD,, ^C,,E,, D,,2 z2 |
[V:1]g4 a4 |
[V:2]d4 e4 |
[V:3]B4 c4 |
[V:4]G,,G, G,G, G,G, G,G, |
[V:1]^f3 e/f/ g2 ^g2 |
[V:2]c4 d2 z2 |
[V:3]A4 B2 z2 |
[V:4]G,G, G,G, G,2 z2 |
[V:1]a4 _b2 =b2 |
[V:2]d8 |
[V:3]^FD FD GD ^GD |
[V:4]z8 |
[V:1]c'6 ^c'2 |
[V:2]^f6 z2 |
[V:3]A6 z2 |
[V:4]D6 z2 |
[V:1]d'/b/g/d/ B/d/G/d/ A/d/B/d/ c/d/A/d/ |
[V:2][B2D2] zB ^FG AF |
[V:3][G,2B2D2] z6 |
[V:4][G,,2G,2] z6 |
[V:1]d'/b/g/d/ B/d/G/d/ A/d/B/d/ c/d/A/d/ |
[V:2]G2 zB ^FG AF |
[V:3][G,2B2D2] z6 |
[V:4][G,2G,,2] z6 |
[V:1]B/G,/B,/D/ G/B/d/B/ c/A,/C/^F/ A/c/e/c/ |
[V:2]G2 z2 c2 z2 |
[V:3]D2 z2 ^F2 zc/A/ |
[V:4]G,2 z2 A,2 z2 |
[V:1]B/^F/G/B/ d/f/a/f/ e/c/e/g/ c'/g/e'/c'/ |
[V:2]d2 z2 e2 z2 |
[V:3]G2 z2 G2 z2 |
[V:4]B,2 z2 C2 z2 |
[V:1]g'2- g'/^f'/g'/f'/ g'e' d'c' |
[V:2]EE EE Ec BA |
[V:3]CC CC CC CC |
[V:4]z8 |
[V:1]b/d'/g'/d'/ g'/d'/b/g/ a4 |
[V:2]GG GG ^FF FF |
[V:3]DD DD DD DD |
[V:4]z8 |
[V:1]g2 z6 |
[V:2]GD DD DD DD |
[V:3]G,2 z6 |
[V:4]z8 |
[V:1]z8 |
[V:2]G4 A4 |
[V:3]D4 E4 |
[V:4]B,4 C4 |
[V:1]z_e ee ed ff |
[V:2]^F4 G2 ^G2 |
[V:3]C4 D4 |
[V:4]A,4 B,4 |
[V:1]fe d/c/B/A/ G2 A2 |
[V:2]A4 B2 ^F2 |
[V:3]E4 D2 C2 |
[V:4]C4 D2 D,2 |
[V:1]B/c/A/B/ GA B/c/A/B/ Gd |
[V:2]GC B,^F GC B,B |
[V:3]B,^F GC B,F GG, |
[V:4]G,,D, G,D, G,,D, G,G,, |
[V:1]cB AG ^FE DA |
[V:2]G^F ED CB, A,F |
[V:3]ED CB, A,G, ^F,C |
[V:4]C,4 D,4 |
[V:1]B/c/A/B/ GA B/c/A/B/ GB |
[V:2]GC B,^F GC B,=F |
[V:3]B,^F GC B,F GD |
[V:4]G,,D, G,D, G,,D, G,G,, |
[V:1]ce gc' e'2 z2 |
[V:2]Ec eg c'2 z2 |
[V:3]EE CG, E,2 z2 |
[V:4]C,C, G,,E,, C,,2 z2 |
[V:1]d'2- d'/g'/^f'/e'/ d'2- d'/g'/f'/e'/ |
[V:2]BB BB BB BB |
[V:3]GG GG GG GG |
[V:4]DD DD DD DD |
[V:1]d'/g'/^f'/e'/ d'/g'/f'/e'/ d'b' b'b' |
[V:2]B>^A B>A B2 z2 |
[V:3]G>G G>G G2 z2 |
[V:4]D>^C D>C D2 z2 |
[V:1]a8 |
[V:2]z4 C4 |
[V:3]GG GG ^FF FF |
[V:4]DD DD D,D, D,D, |
[V:1]g2 z2 [^f2A2D2] z2 |
[V:2]G,/B,/D/^F/ G/B/d/B/ c2 z2 |
[V:3]G2 z2 D,/^F,/A,/C/ D/^F/A/c/ |
[V:4]G,2 z2 D,2 z2 |
[V:1]G/B/d/^f/ g/b/d'/b/ c'2 [f2A2] |
[V:2][G,2B2D2] z2 [A2D2] z2 |
[V:3]B2 z2 [^F2A,2] z2 |
[V:4]G,2 z2 D,,/^F,,/A,,/C,/ D,/^F,/A,/C/ |
[V:1][B2g2] b2 [G,2G2] z2 |
[V:2][G,2G2] [g2B2] [g2B2] z2 |
[V:3]D2 [D2B,2] [B,2D2] z2 |
[V:4]B,2 G,,2 G,,2 z2 |
[V:1]G4 _A4 |
[V:2]G4 _A4 |
[V:3]G,4 _A,4 |
[V:4]G,,4 _A,,4 |
[V:1]^F4 G4 |
[V:2]^F4 G4 |
[V:3]^F,4 G,4 |
[V:4]^F,,4 G,,4 |
[V:1]_E4 F4 |
[V:2]_B,4 C4 |
[V:3]G,4 _A,4 |
[V:4]_E,,E,, E,,E,, E,,E,, E,,E,, |
[V:1]D4 _E2 =E2 |
[V:2]_A,4 G,2 z2 |
[V:3]F,4 G,2 z2 |
[V:4]_E,,E,, E,,E,, E,,2 z2 |
[V:1]F4 _G2 =G2 |
[V:2]_B,8 |
[V:3]D,_B, D,B, _E,B, =E,B, |
[V:4]z8 |
[V:1]_A6 =A2 |
[V:2]D6 z2 |
[V:3]F,6 z2 |
[V:4]_B,,6 z2 |
[V:1]_B4 c2 d2 |
[V:2]G_E GE _AE AE |
[V:3]z8 |
[V:4]z8 |
[V:1]_e2 >_B2 _c=c _d=d |
[V:2]G_E GE _AE AE |
[V:3]z8 |
[V:4]z8 |
[V:1]_e>g _b_B _c=c _d=d |
[V:2]G_E GE _AE AE |
[V:3]z8 |
[V:4]z8 |
[V:1]_e4 =e4 |
[V:2]G8 |
[V:3]z4 C,4 |
[V:4]CG, CG, _B,G, B,G, |
[V:1]f2 z6 |
[V:2]F4 G4 |
[V:3]C4 _D4 |
[V:4]_A,4 _B,4 |
[V:1]z_d dd dc _ee |
[V:2]E4 F2 ^F2 |
[V:3]_B,4 C4 |
[V:4]G,4 _A,2 =A,2 |
[V:1]_ed gg g^f _bb |
[V:2]G2 d2 c2 ^c2 |
[V:3]D2 _B2 A2 G2 |
[V:4]_B,2 z6 |
[V:1]_ba ^c'c' c'd' c'c' |
[V:2]d2 gg g^f GG |
[V:3]^F2 _EE ED EE |
[V:4]z8 |
[V:1]^c'd' z6 |
[V:2]G^F ^CC CD z2 |
[V:3]_ED ^C,C, C,D, C,C, |
[V:4]z4 z2 ^C,,C,, |
[V:1]z8 |
[V:2]z8 |
[V:3]^C,D, z6 |
[V:4]^C,,D,, z6 |
[V:1]z8 |
[V:2]A4 B4 |
[V:3]E4 F4 |
[V:4]C4 D4 |
[V:1]zf ff fe aa |
[V:2]^G4 A2 ee |
[V:3]D4 C2 cc |
[V:4]B,4 C2 z2 |
[V:1]a^g c'c' c'b ^d'd' |
[V:2]d2 ^dd e2 AA |
[V:3]B2 AA ^G2 FF |
[V:4]z8 |
[V:1]^d'e' d'd' d'e' =d'd' |
[V:2]A^G AA AG BB |
[V:3]FE FF FE EE |
[V:4]z4 z2 ^G,G, |
[V:1]c'/e'/c'/a/ e/c/A/c/ B/e/c/e/ d/e/B/e/ |
[V:2]c2 zA ^GA BG |
[V:3]E2 z6 |
[V:4]A,2 z6 |
[V:1]c/e'/c'/a/ e/c/A/c/ B/e/c/e/ d/e/B/e/ |
[V:2]A2 zA ^GA BG |
[V:3]E2 z6 |
[V:4]A,2 z6 |
[V:1]c/A,/C/E/ A/c/B/A/ ^G/D/E/G/ B/d/c/B/ |
[V:2]A2 z2 ^G2 z2 |
[V:3][E2C2] z2 [D2B,2] z2 |
[V:4]A,2 z2 A,2 z2 |
[V:1]c/A/e/A/ c/A/e/A/ ^c/A/e/A/ c/A/e/A/ |
[V:2]A8- |
[V:3]C4 ^C4 |
[V:4]A,4 G,4 |
[V:1]d/D/f/D/ d/D/f/D/ e/A/g/A/ e/A/g/A/ |
[V:2]A8 |
[V:3]D4 E4 |
[V:4]F,4 ^C,4 |
[V:1]f/d/f'/d/ f'/d/f'/d/ f'_B,/D/ B,/D/A,/D/ |
[V:2]A2 z3 _B,2 A, |
[V:3]F2 z3 _B,2 A, |
[V:4]D,2 z3 _B,,2 A,, |
[V:1]^G,/D/A,/D/ _B,/D/A,/D/ G,/F/E/D/ B/F/E/D/ |
[V:2]^G,A, _B,A, G,2 zF |
[V:3]^G,A, _B,A, G,2 z=B, |
[V:4]^G,,A,, _B,,A,, G,,2 zG,, |
[V:1]C/E/^G/A/ G/A/G/A/ =G/F/E/D/ e/d/c/B/ |
[V:2]E2 zE F2 zB |
[V:3]C2 zA, A,2 zF |
[V:4]A,,2 z^C, D,2 zD, |
[V:1]c/e/a/e/ a/e/c/A/ B4 |
[V:2]AA AA ^GG GG |
[V:3]EE EE DD DD |
[V:4]E,E, E,E, E,E, E,E, |
[V:1]A4 B4 |
[V:2]E4 F4 |
[V:3]C4 D4 |
[V:4]z8 |
[V:1]^G4 A2 z2 |
[V:2]D4 C2 z2 |
[V:3]B,4 A,2 z2 |
[V:4]zE, E,E, E,F, z2 |
[V:1]e4 f2 z2 |
[V:2]_B4 A2 z2 |
[V:3]G4 F2 z2 |
[V:4]z^C CC CD z2 |
[V:1]a4 _b2 =b2 |
[V:2]_e4 d2 f2 |
[V:3]c4 _B2 d2 |
[V:4]z^F FF FG ^GG |
[V:1]c'2 _bb ba _aa |
[V:2]e2 ^cc cd BB |
[V:3]c2 GG GA FF |
[V:4]^GA EE EF DD |
[V:1]_ag ^ff fg =ff |
[V:2]Bc AA AB dd |
[V:3]FG _EE ED z2 |
[V:4]DE CC CB, z2 |
[V:1]f/e/d/c/ B/A/G/F/ Ec'/b/ a/g/f/e/ |
[V:2]d/c/B/A/ G/F/E/D/ C2 z2 |
[V:3]B,4 C4 |
[V:4]G,4 A,4 |
[V:1]d/c/B/A/ G/^F/A/C/ B,/C/B,/A,/ B,/G,/B,/C/ |
[V:2]z8 |
[V:3]A,4 B,2 z2 |
[V:4]^F,4 G,2 z2 |
[V:1]D/E/D/^C/ D/B,/D/E/ F/G/F/E/ F/D/B/c/ |
[V:2]B,2 z2 D2 z2 |
[V:3]B,2 z2 B,2 z2 |
[V:4]G,2 z2 G,2 z2 |
[V:1]d/e/d/^c/ d/B/d/e/ f/e/d/c/ d/c/d/e/ |
[V:2]F2 z2 F2 z2 |
[V:3][B,2D2] z2 [D2B,2] z2 |
[V:4]G,2 z2 G,2 z2 |
[V:1]f/e/d/^c/ d/c/d/e/ f/e/d/c/ d/e/f/g/ |
[V:2]F2 z2 F2 z2 |
[V:3][D2B,2] z2 [B,2D2] z2 |
[V:4]G,2 z2 G,2 z2 |
[V:1]a^g ba =g^f ag |
[V:2]F2 z6 |
[V:3][B,2D2] z6 |
[V:4]G,,2 z6 |
[V:1]fe gf ed fB |
[V:2]z8 |
[V:3]z8 |
[V:4]z8 |
[V:1]c4 d4 |
[V:2]G4 A4 |
[V:3]E4 F4 |
[V:4]CC CC CC CC |
[V:1]B4 c2 ^c2 |
[V:2]F4 G4 |
[V:3]D4 E4 |
[V:4]CC CC CC CC |
[V:1]d4 _e2 =e2 |
[V:2]A2 >>B2 c2 c2 |
[V:3]F4 ^F2 G2 |
[V:4]CC CC CC CC |
[V:1]f4 e2 zg |
[V:2]c2 d2 G2 z2 |
[V:3]A2 B2 c2 z2 |
[V:4]CC CC C2 z2 |
[V:1]c'e'/d'/ c'/b/a/g/ f/e/d/c/ B/A/G/F/ |
[V:2]G,8 |
[V:3]C,8- |
[V:4]E,,8 |
[V:1]E4 D2 A2 |
[V:2]A,6 CD |
[V:3]C,2 ^C,2 D,4 |
[V:4]F,,6 ^F,,2 |
[V:1]C4 B,C DE |
[V:2]D4- DC B,C |
[V:3]F,4- F,E, F,E, |
[V:4]G,,8- |
[V:1]F4 E2 z2 |
[V:2]C2 B,2 C2 z2 |
[V:3]D,4 E,2 z2 |
[V:4]G,,4 C,,C, G,,E,, |
[V:1]c4 d4 |
[V:2]z4 F4 |
[V:3]z8 |
[V:4]C,,2 z6 |
[V:1]B3 A/B/ c2 ^c2 |
[V:2]G4 E3 D/E/ |
[V:3]z8 |
[V:4]z8 |
[V:1]d4 _e2 =e3/d//e// |
[V:2]F2 ^F2 G2 ^G2 |
[V:3]z8 |
[V:4]z8 |
[V:1]f4 eg c'b |
[V:2]A2 B3/A//B// c2 z2 |
[V:3]z4 C4 |
[V:4]z8 |
[V:1]aA aa a/d/^c/d/ _e/=e/f/^f/ |
[V:2]z8 |
[V:3]D4 B,3 A,/B,/ |
[V:4]F,4 G,4 |
[V:1]gg2 _B Aa2 c |
[V:2]z8 |
[V:3]C2 ^C2 D4 |
[V:4]E,3 D,/E,/ F,2 ^F,2 |
[V:1]Bg ^fa gd ge |
[V:2]D6 E3/D//E// |
[V:3]B,6 C3/B,//C// |
[V:4]G,8- |
[V:1]fc' be' d'b gf |
[V:2]F6 D2 |
[V:3]D6 B,2 |
[V:4]G,8- |
[V:1]eg ^fa ge gB |
[V:2]E6 F3/E//F// |
[V:3]C6 D3/C//D// |
[V:4]G,8- |
[V:1]cc' bd' c'g e'd' |
[V:2]G6 E2 |
[V:3]E6 C2 |
[V:4]G,8- |
[V:1]c'^f ac eA c^F |
[V:2][^F6A,6] C2 |
[V:3]C6 A,2 |
[V:4]G,8- |
[V:1]Gg ^fa gg fa |
[V:2]D2 >_E2 D3 E |
[V:3]B,2 >C2 B,3 C |
[V:4]G,8- |
[V:1]gf eg f2 z2 |
[V:2]Dd ^ce dF EG |
[V:3]B,2 z2 >D2 ^CE |
[V:4]G,4 z4 |
[V:1]z8 |
[V:2]F4- Ff ed |
[V:3]D4- Dd cB |
[V:4]zG,, ^F,,A,, G,,4 |
[V:1]z8 |
[V:2]c4 d4 |
[V:3]G4 A4 |
[V:4]E4 F4 |
[V:1]z_a aa ag _bb |
[V:2]B4 c2 ^c2 |
[V:3]F4 G4 |
[V:4]D4 E4 |
[V:1]_ba g/f/e/d/ c2 d2 |
[V:2]d4 e2 B2 |
[V:3]A4 G2 F2 |
[V:4]F2 >F,2 G,2 G,2 |
[V:1]g/e/c/G/ E/G/C/G/ D/G/E/G/ F/G/D/G/ |
[V:2]c2 zE B,C DB, |
[V:3]E2 z6 |
[V:4][C,,2C,2] z6 |
[V:1]g/e/c/G/ E/G/C/G/ D/G/E/G/ F/G/D/G/ |
[V:2]C2 zE B,C DB, |
[V:3][C,2E2G,2] z6 |
[V:4][C,,2C,2] z6 |
[V:1]E/C/E/G/ c/e/d/c/ B/D/F/G/ B/d/f/d/ |
[V:2]C2 z2 B2 z2 |
[V:3]E2 z2 F2 z2 |
[V:4]C,2 z2 D,2 z2 |
[V:1]c/E/G/_B/ c/e/g/_b/ a/A/f/a/ c'/a/g/f/ |
[V:2]c2 z2 c2 z2 |
[V:3]G2 z2 A2 z2 |
[V:4]E,2 z2 F,2 z2 |
[V:1]e/g/c'/g/ c'/g/e/c/ d4 |
[V:2]cc cc BB BB |
[V:3]GG GG FF FF |
[V:4]G,G, G,G, G,G, G,G, |
[V:1]c2 z6 |
[V:2]c2 z6 |
[V:3]EG GG GG GG |
[V:4]C,2 z6 |
[V:1]z8 |
[V:2]c4 d4 |
[V:3]G8- |
[V:4]E4 F4 |
[V:1]f4 g4 |
[V:2]B4 _B4 |
[V:3]G8 |
[V:4]D4 _D4 |
[V:1]e4 f4 |
[V:2]_B4 _c4 |
[V:3]G6 _A2 |
[V:4]C4 _D2 =D2 |
[V:1]_e4 G4 |
[V:2]c4 _D4 |
[V:3]_A4 _B,4 |
[V:4]_E4 _E,4 |
[V:1]_a4 _b4 |
[V:2]_e4 f4 |
[V:3]c4 _d4 |
[V:4]_A,,/G,,/A,,/G,,/ A,,/G,,/A,,/G,,/ A,,/G,,/A,,/G,,/ A,,/G,,/A,,/G,,/ |
[V:1]g4 _a_A,/G,/ A,/_B,/C/_D/ |
[V:2]_d4 _e_A,/G,/ A,/_B,/C/_D/ |
[V:3]_B4 c_A,/G,/ A,/_B,/C/_D/ |
[V:4]_A,,/G,,/A,,/G,,/ A,,/G,,/A,,/G,,/ A,,A,,/G,,/ A,,/_B,,/C,/_D,/ |
[V:1]_E_B,/A,/ B,/C/_D/E/ FC/=B,/ C/=D/E/F/ |
[V:2]_E_B,/A,/ B,/C/_D/E/ FC/=B,/ C/=D/E/F/ |
[V:3]_E_B,/A,/ B,/C/_D/E/ FC/=B,/ C/=D/E/F/ |
[V:4]_E,_B,,/A,,/ B,,/C,/_D,/E,/ F,C,/=B,,/ C,/=D,/E,/F,/ |
[V:1]GG/^F/ G/A/B/G/ cc/B/ c/d/_e/f/ |
[V:2]GF FF F_E EE |
[V:3]GD DD DC CC |
[V:4]G,8 |
[V:1]gg/^f/ g/a/b/g/ c'c'/b/ c'/d'/_e'/c'/ |
[V:2]_ED DD GG GG |
[V:3]CB, B,D CC CC |
[V:4]zF, F,F, F,_E, E,C, |
[V:1]g'6 f'2 |
[V:2]g8- |
[V:3]B,2 z6 |
[V:4]G,,2 z6 |
[V:1]e'4 f'3 e' |
[V:2]gg/^f/ g/_b/a/g/ =f4- |
[V:3]^c4 d3 =c |
[V:4]z4 zD/^C/ D/E/F/D/ |
[V:1]d'4 e'3 d' |
[V:2]ff/e/ f/a/g/f/ e4- |
[V:3]B4 c3 B |
[V:4]G4 zC/B,/ C/D/E/C/ |
[V:1]c'8 |
[V:2]e/g/f/e/ a/g/f/e/ d4- |
[V:3]A4- A/B/c/B/ cB/A/ |
[V:4]F4 ^F4 |
[V:1]bb aa gg ff |
[V:2]dd ff ee dd |
[V:3]G2 z6 |
[V:4]G2 z6 |
[V:1]e/f/d/e/ cd e/f/d/e/ cg |
[V:2]cF EB cF Ee |
[V:3]EB cF EB cC |
[V:4]C,G, CG, C,G, CC, |
[V:1]fe dc BA Gd |
[V:2]cB AG FE DB |
[V:3]AG FE DC B,F |
[V:4]F,4 G,4 |
[V:1]e/f/d/e/ cd e/f/d/e/ ce |
[V:2]cF EB cF E_B |
[V:3]EB cF EB cG |
[V:4]C,G, CG, C,G, CC, |
[V:1]fc fa c'2 za |
[V:2]AA cf a2 z2 |
[V:3]AA FC A,2 z2 |
[V:4]F,F, C,A,, F,,2 z2 |
[V:1]g2- g/c'/b/a/ g2- g/c'/b/a/ |
[V:2]cc cc cc cc |
[V:3]EE EE EE EE |
[V:4]G,G, G,G, G,G, G,G, |
[V:1]g/c'/b/a/ g/c'/b/a/ ge' e'e' |
[V:2]c>c c>c c2 z2 |
[V:3]E>^D E>D E2 z2 |
[V:4]G,>^F, G,>F, G,2 z2 |
[V:1]d8 |
[V:2]cc cc BB BB |
[V:3]z4 F4 |
[V:4]G,G, G,G, G,,G,, G,,G,, |
[V:1]C4 D4 |
[V:2]C4 D4 |
[V:3][C4C,4] [D,4D4] |
[V:4][C,,4C,4] D,,4 |
[V:1]B,3 A,/B,/ C2 ^C2 |
[V:2]B,3 A,/B,/ C2 ^C2 |
[V:3]B,3 A,/B,/ [C2C,2] ^C,2 |
[V:4]B,,3 A,,/B,,/ [C,2C,,2] ^C,,2 |
[V:1]D2 >_E2 =EF ^FG |
[V:2]D2 >_E2 =EF ^FG |
[V:3]D,2 >_E,2 =E,F, ^F,G, |
[V:4]D,,2 >_E,,2 =E,,F,, ^F,,G,, |
[V:1]^GA Bc d2 B2 |
[V:2]^GA Bc A2 F2 |
[V:3]^G,A, B,C D2 D2 |
[V:4]^G,,A,, B,,C, F,,2 =G,,2 |
[V:1]C/E/G/B/ c/e/g/e/ f2 z2 |
[V:2]E2 z2 G,/B,/D/F/ G/B/d/f/ |
[V:3]E2 z2 D2 z2 |
[V:4]C,2 z2 G,2 z2 |
[V:1][e2c2] z2 [b2d2] z2 |
[V:2]e2 z2 d2 z2 |
[V:3]C,/E,/G,/B,/ C/E/G/E/ F2 G,2 |
[V:4]C,2 z2 G,,/B,,/D,/F,/ G,/B,/D/F/ |
[V:1][c'2e2] [G2e2c2] [e2c2G2] z2 |]
[V:2]c2 [c2E2] [c2E2] z2 |]
[V:3]C2 [G,2E2] [E2G,2] z2 |]
[V:4]E2 [C,,2C,2] [C,,2C,2] z2 |]

